/* XPM */
static char * texture[] = {
"128 128 6 1",
"  c #232E3A",
". c #2F3E4D",
"X c #425769",
"o c #6A6C6D",
"O c #838078",
"+ c #9C9E92",
"XXXXXXXXXXXXXXXXXXXXXXXX........ooooooooXXXXXXXXXXXXXXXXXXXXXXXXXXXXXXXXXXXXXXXXXXXXXXXX........ooooooooXXXXXXXXXXXXXXXXXXXXXXXX",
"XXXXXXXXXXXXXXXXXXXXXXXX........ooooooooXXXXXXXXXXXXXXXXXXXXXXXXXXXXXXXXXXXXXXXXXXXXXXXX........ooooooooXXXXXXXXXXXXXXXXXXXXXXXX",
"XXXXXXXXXXXXXXXXXXXXXXXX........ooooooooXXXXXXXXXXXXXXXXXXXXXXXXXXXXXXXXXXXXXXXXXXXXXXXX........ooooooooXXXXXXXXXXXXXXXXXXXXXXXX",
"XXXXXXXXXXXXXXXXXXXXXXXX........ooooooooXXXXXXXXXXXXXXXXXXXXXXXXXXXXXXXXXXXXXXXXXXXXXXXX........ooooooooXXXXXXXXXXXXXXXXXXXXXXXX",
"XXXXXXXXXXXXXXXXXXXXXXXX........ooooooooXXXXXXXXXXXXXXXXXXXXXXXXXXXXXXXXXXXXXXXXXXXXXXXX........ooooooooXXXXXXXXXXXXXXXXXXXXXXXX",
"XXXXXXXXXXXXXXXXXXXXXXXX........ooooooooXXXXXXXXXXXXXXXXXXXXXXXXXXXXXXXXXXXXXXXXXXXXXXXX........ooooooooXXXXXXXXXXXXXXXXXXXXXXXX",
"XXXXXXXXXXXXXXXXXXXXXXXX........ooooooooXXXXXXXXXXXXXXXXXXXXXXXXXXXXXXXXXXXXXXXXXXXXXXXX........ooooooooXXXXXXXXXXXXXXXXXXXXXXXX",
"XXXXXXXXXXXXXXXXXXXXXXXX........ooooooooXXXXXXXXXXXXXXXXXXXXXXXXXXXXXXXXXXXXXXXXXXXXXXXX........ooooooooXXXXXXXXXXXXXXXXXXXXXXXX",
"........................        ooooooooXXXXXXXX........................................        ooooooooXXXXXXXX................",
"........................        ooooooooXXXXXXXX........................................        ooooooooXXXXXXXX................",
"........................        ooooooooXXXXXXXX........................................        ooooooooXXXXXXXX................",
"........................        ooooooooXXXXXXXX........................................        ooooooooXXXXXXXX................",
"........................        ooooooooXXXXXXXX........................................        ooooooooXXXXXXXX................",
"........................        ooooooooXXXXXXXX........................................        ooooooooXXXXXXXX................",
"........................        ooooooooXXXXXXXX........................................        ooooooooXXXXXXXX................",
"........................        ooooooooXXXXXXXX........................................        ooooooooXXXXXXXX................",
"                                OOOOOOOO........                                                ++++++++........                ",
"                                OOOOOOOO........                                                ++++++++........                ",
"                                OOOOOOOO........                                                ++++++++........                ",
"                                OOOOOOOO........                                                ++++++++........                ",
"                                OOOOOOOO........                                                ++++++++........                ",
"                                OOOOOOOO........                                                ++++++++........                ",
"                                OOOOOOOO........                                                ++++++++........                ",
"                                OOOOOOOO........                                                ++++++++........                ",
"ooooooooOOOOOOOOOOOOOOOOOOOOOOOOOOOOOOOOooooooooooooooooooooooooooooooooOOOOOOOO++++++++++++++++++++++++oooooooooooooooooooooooo",
"ooooooooOOOOOOOOOOOOOOOOOOOOOOOOOOOOOOOOooooooooooooooooooooooooooooooooOOOOOOOO++++++++++++++++++++++++oooooooooooooooooooooooo",
"ooooooooOOOOOOOOOOOOOOOOOOOOOOOOOOOOOOOOooooooooooooooooooooooooooooooooOOOOOOOO++++++++++++++++++++++++oooooooooooooooooooooooo",
"ooooooooOOOOOOOOOOOOOOOOOOOOOOOOOOOOOOOOooooooooooooooooooooooooooooooooOOOOOOOO++++++++++++++++++++++++oooooooooooooooooooooooo",
"ooooooooOOOOOOOOOOOOOOOOOOOOOOOOOOOOOOOOooooooooooooooooooooooooooooooooOOOOOOOO++++++++++++++++++++++++oooooooooooooooooooooooo",
"ooooooooOOOOOOOOOOOOOOOOOOOOOOOOOOOOOOOOooooooooooooooooooooooooooooooooOOOOOOOO++++++++++++++++++++++++oooooooooooooooooooooooo",
"ooooooooOOOOOOOOOOOOOOOOOOOOOOOOOOOOOOOOooooooooooooooooooooooooooooooooOOOOOOOO++++++++++++++++++++++++oooooooooooooooooooooooo",
"ooooooooOOOOOOOOOOOOOOOOOOOOOOOOOOOOOOOOooooooooooooooooooooooooooooooooOOOOOOOO++++++++++++++++++++++++oooooooooooooooooooooooo",
"OOOOOOOOXXXXXXXXXXXXXXXXXXXXXXXXXXXXXXXXXXXXXXXXXXXXXXXX........OOOOOOOOXXXXXXXXXXXXXXXXXXXXXXXXXXXXXXXXXXXXXXXXXXXXXXXX........",
"OOOOOOOOXXXXXXXXXXXXXXXXXXXXXXXXXXXXXXXXXXXXXXXXXXXXXXXX........OOOOOOOOXXXXXXXXXXXXXXXXXXXXXXXXXXXXXXXXXXXXXXXXXXXXXXXX........",
"OOOOOOOOXXXXXXXXXXXXXXXXXXXXXXXXXXXXXXXXXXXXXXXXXXXXXXXX........OOOOOOOOXXXXXXXXXXXXXXXXXXXXXXXXXXXXXXXXXXXXXXXXXXXXXXXX........",
"OOOOOOOOXXXXXXXXXXXXXXXXXXXXXXXXXXXXXXXXXXXXXXXXXXXXXXXX........OOOOOOOOXXXXXXXXXXXXXXXXXXXXXXXXXXXXXXXXXXXXXXXXXXXXXXXX........",
"OOOOOOOOXXXXXXXXXXXXXXXXXXXXXXXXXXXXXXXXXXXXXXXXXXXXXXXX........OOOOOOOOXXXXXXXXXXXXXXXXXXXXXXXXXXXXXXXXXXXXXXXXXXXXXXXX........",
"OOOOOOOOXXXXXXXXXXXXXXXXXXXXXXXXXXXXXXXXXXXXXXXXXXXXXXXX........OOOOOOOOXXXXXXXXXXXXXXXXXXXXXXXXXXXXXXXXXXXXXXXXXXXXXXXX........",
"OOOOOOOOXXXXXXXXXXXXXXXXXXXXXXXXXXXXXXXXXXXXXXXXXXXXXXXX........OOOOOOOOXXXXXXXXXXXXXXXXXXXXXXXXXXXXXXXXXXXXXXXXXXXXXXXX........",
"OOOOOOOOXXXXXXXXXXXXXXXXXXXXXXXXXXXXXXXXXXXXXXXXXXXXXXXX........OOOOOOOOXXXXXXXXXXXXXXXXXXXXXXXXXXXXXXXXXXXXXXXXXXXXXXXX........",
"++++++++XXXXXXXX........................................        OOOOOOOOXXXXXXXX........................................        ",
"++++++++XXXXXXXX........................................        OOOOOOOOXXXXXXXX........................................        ",
"++++++++XXXXXXXX........................................        OOOOOOOOXXXXXXXX........................................        ",
"++++++++XXXXXXXX........................................        OOOOOOOOXXXXXXXX........................................        ",
"++++++++XXXXXXXX........................................        OOOOOOOOXXXXXXXX........................................        ",
"++++++++XXXXXXXX........................................        OOOOOOOOXXXXXXXX........................................        ",
"++++++++XXXXXXXX........................................        OOOOOOOOXXXXXXXX........................................        ",
"++++++++XXXXXXXX........................................        OOOOOOOOXXXXXXXX........................................        ",
"oooooooo........                                                OOOOOOOO........                                                ",
"oooooooo........                                                OOOOOOOO........                                                ",
"oooooooo........                                                OOOOOOOO........                                                ",
"oooooooo........                                                OOOOOOOO........                                                ",
"oooooooo........                                                OOOOOOOO........                                                ",
"oooooooo........                                                OOOOOOOO........                                                ",
"oooooooo........                                                OOOOOOOO........                                                ",
"oooooooo........                                                OOOOOOOO........                                                ",
"oooooooo++++++++OOOOOOOOooooooooooooooooooooooooooooooooOOOOOOOO++++++++++++++++++++++++oooooooooooooooooooooooooooooooooooooooo",
"oooooooo++++++++OOOOOOOOooooooooooooooooooooooooooooooooOOOOOOOO++++++++++++++++++++++++oooooooooooooooooooooooooooooooooooooooo",
"oooooooo++++++++OOOOOOOOooooooooooooooooooooooooooooooooOOOOOOOO++++++++++++++++++++++++oooooooooooooooooooooooooooooooooooooooo",
"oooooooo++++++++OOOOOOOOooooooooooooooooooooooooooooooooOOOOOOOO++++++++++++++++++++++++oooooooooooooooooooooooooooooooooooooooo",
"oooooooo++++++++OOOOOOOOooooooooooooooooooooooooooooooooOOOOOOOO++++++++++++++++++++++++oooooooooooooooooooooooooooooooooooooooo",
"oooooooo++++++++OOOOOOOOooooooooooooooooooooooooooooooooOOOOOOOO++++++++++++++++++++++++oooooooooooooooooooooooooooooooooooooooo",
"oooooooo++++++++OOOOOOOOooooooooooooooooooooooooooooooooOOOOOOOO++++++++++++++++++++++++oooooooooooooooooooooooooooooooooooooooo",
"oooooooo++++++++OOOOOOOOooooooooooooooooooooooooooooooooOOOOOOOO++++++++++++++++++++++++oooooooooooooooooooooooooooooooooooooooo",
"XXXXXXXXXXXXXXXXXXXXXXXX........OOOOOOOOXXXXXXXXXXXXXXXXXXXXXXXXXXXXXXXXXXXXXXXXXXXXXXXX........ooooooooXXXXXXXXXXXXXXXXXXXXXXXX",
"XXXXXXXXXXXXXXXXXXXXXXXX........OOOOOOOOXXXXXXXXXXXXXXXXXXXXXXXXXXXXXXXXXXXXXXXXXXXXXXXX........ooooooooXXXXXXXXXXXXXXXXXXXXXXXX",
"XXXXXXXXXXXXXXXXXXXXXXXX........OOOOOOOOXXXXXXXXXXXXXXXXXXXXXXXXXXXXXXXXXXXXXXXXXXXXXXXX........ooooooooXXXXXXXXXXXXXXXXXXXXXXXX",
"XXXXXXXXXXXXXXXXXXXXXXXX........OOOOOOOOXXXXXXXXXXXXXXXXXXXXXXXXXXXXXXXXXXXXXXXXXXXXXXXX........ooooooooXXXXXXXXXXXXXXXXXXXXXXXX",
"XXXXXXXXXXXXXXXXXXXXXXXX........OOOOOOOOXXXXXXXXXXXXXXXXXXXXXXXXXXXXXXXXXXXXXXXXXXXXXXXX........ooooooooXXXXXXXXXXXXXXXXXXXXXXXX",
"XXXXXXXXXXXXXXXXXXXXXXXX........OOOOOOOOXXXXXXXXXXXXXXXXXXXXXXXXXXXXXXXXXXXXXXXXXXXXXXXX........ooooooooXXXXXXXXXXXXXXXXXXXXXXXX",
"XXXXXXXXXXXXXXXXXXXXXXXX........OOOOOOOOXXXXXXXXXXXXXXXXXXXXXXXXXXXXXXXXXXXXXXXXXXXXXXXX........ooooooooXXXXXXXXXXXXXXXXXXXXXXXX",
"XXXXXXXXXXXXXXXXXXXXXXXX........OOOOOOOOXXXXXXXXXXXXXXXXXXXXXXXXXXXXXXXXXXXXXXXXXXXXXXXX........ooooooooXXXXXXXXXXXXXXXXXXXXXXXX",
"........................        OOOOOOOOXXXXXXXX........................................        ooooooooXXXXXXXX................",
"........................        OOOOOOOOXXXXXXXX........................................        ooooooooXXXXXXXX................",
"........................        OOOOOOOOXXXXXXXX........................................        ooooooooXXXXXXXX................",
"........................        OOOOOOOOXXXXXXXX........................................        ooooooooXXXXXXXX................",
"........................        OOOOOOOOXXXXXXXX........................................        ooooooooXXXXXXXX................",
"........................        OOOOOOOOXXXXXXXX........................................        ooooooooXXXXXXXX................",
"........................        OOOOOOOOXXXXXXXX........................................        ooooooooXXXXXXXX................",
"........................        OOOOOOOOXXXXXXXX........................................        ooooooooXXXXXXXX................",
"                                OOOOOOOO........                                                OOOOOOOO........                ",
"                                OOOOOOOO........                                                OOOOOOOO........                ",
"                                OOOOOOOO........                                                OOOOOOOO........                ",
"                                OOOOOOOO........                                                OOOOOOOO........                ",
"                                OOOOOOOO........                                                OOOOOOOO........                ",
"                                OOOOOOOO........                                                OOOOOOOO........                ",
"                                OOOOOOOO........                                                OOOOOOOO........                ",
"                                OOOOOOOO........                                                OOOOOOOO........                ",
"++++++++oooooooo++++++++++++++++OOOOOOOOOOOOOOOOoooooooooooooooo++++++++++++++++oooooooooooooooo++++++++OOOOOOOO++++++++oooooooo",
"++++++++oooooooo++++++++++++++++OOOOOOOOOOOOOOOOoooooooooooooooo++++++++++++++++oooooooooooooooo++++++++OOOOOOOO++++++++oooooooo",
"++++++++oooooooo++++++++++++++++OOOOOOOOOOOOOOOOoooooooooooooooo++++++++++++++++oooooooooooooooo++++++++OOOOOOOO++++++++oooooooo",
"++++++++oooooooo++++++++++++++++OOOOOOOOOOOOOOOOoooooooooooooooo++++++++++++++++oooooooooooooooo++++++++OOOOOOOO++++++++oooooooo",
"++++++++oooooooo++++++++++++++++OOOOOOOOOOOOOOOOoooooooooooooooo++++++++++++++++oooooooooooooooo++++++++OOOOOOOO++++++++oooooooo",
"++++++++oooooooo++++++++++++++++OOOOOOOOOOOOOOOOoooooooooooooooo++++++++++++++++oooooooooooooooo++++++++OOOOOOOO++++++++oooooooo",
"++++++++oooooooo++++++++++++++++OOOOOOOOOOOOOOOOoooooooooooooooo++++++++++++++++oooooooooooooooo++++++++OOOOOOOO++++++++oooooooo",
"++++++++oooooooo++++++++++++++++OOOOOOOOOOOOOOOOoooooooooooooooo++++++++++++++++oooooooooooooooo++++++++OOOOOOOO++++++++oooooooo",
"OOOOOOOOXXXXXXXXXXXXXXXXXXXXXXXXXXXXXXXXXXXXXXXXXXXXXXXX........OOOOOOOOXXXXXXXXXXXXXXXXXXXXXXXXXXXXXXXXXXXXXXXXXXXXXXXX........",
"OOOOOOOOXXXXXXXXXXXXXXXXXXXXXXXXXXXXXXXXXXXXXXXXXXXXXXXX........OOOOOOOOXXXXXXXXXXXXXXXXXXXXXXXXXXXXXXXXXXXXXXXXXXXXXXXX........",
"OOOOOOOOXXXXXXXXXXXXXXXXXXXXXXXXXXXXXXXXXXXXXXXXXXXXXXXX........OOOOOOOOXXXXXXXXXXXXXXXXXXXXXXXXXXXXXXXXXXXXXXXXXXXXXXXX........",
"OOOOOOOOXXXXXXXXXXXXXXXXXXXXXXXXXXXXXXXXXXXXXXXXXXXXXXXX........OOOOOOOOXXXXXXXXXXXXXXXXXXXXXXXXXXXXXXXXXXXXXXXXXXXXXXXX........",
"OOOOOOOOXXXXXXXXXXXXXXXXXXXXXXXXXXXXXXXXXXXXXXXXXXXXXXXX........OOOOOOOOXXXXXXXXXXXXXXXXXXXXXXXXXXXXXXXXXXXXXXXXXXXXXXXX........",
"OOOOOOOOXXXXXXXXXXXXXXXXXXXXXXXXXXXXXXXXXXXXXXXXXXXXXXXX........OOOOOOOOXXXXXXXXXXXXXXXXXXXXXXXXXXXXXXXXXXXXXXXXXXXXXXXX........",
"OOOOOOOOXXXXXXXXXXXXXXXXXXXXXXXXXXXXXXXXXXXXXXXXXXXXXXXX........OOOOOOOOXXXXXXXXXXXXXXXXXXXXXXXXXXXXXXXXXXXXXXXXXXXXXXXX........",
"OOOOOOOOXXXXXXXXXXXXXXXXXXXXXXXXXXXXXXXXXXXXXXXXXXXXXXXX........OOOOOOOOXXXXXXXXXXXXXXXXXXXXXXXXXXXXXXXXXXXXXXXXXXXXXXXX........",
"ooooooooXXXXXXXX........................................        OOOOOOOOXXXXXXXX........................................        ",
"ooooooooXXXXXXXX........................................        OOOOOOOOXXXXXXXX........................................        ",
"ooooooooXXXXXXXX........................................        OOOOOOOOXXXXXXXX........................................        ",
"ooooooooXXXXXXXX........................................        OOOOOOOOXXXXXXXX........................................        ",
"ooooooooXXXXXXXX........................................        OOOOOOOOXXXXXXXX........................................        ",
"ooooooooXXXXXXXX........................................        OOOOOOOOXXXXXXXX........................................        ",
"ooooooooXXXXXXXX........................................        OOOOOOOOXXXXXXXX........................................        ",
"ooooooooXXXXXXXX........................................        OOOOOOOOXXXXXXXX........................................        ",
"++++++++........                                                OOOOOOOO........                                                ",
"++++++++........                                                OOOOOOOO........                                                ",
"++++++++........                                                OOOOOOOO........                                                ",
"++++++++........                                                OOOOOOOO........                                                ",
"++++++++........                                                OOOOOOOO........                                                ",
"++++++++........                                                OOOOOOOO........                                                ",
"++++++++........                                                OOOOOOOO........                                                ",
"++++++++........                                                OOOOOOOO........                                                ",
"oooooooo++++++++OOOOOOOOoooooooooooooooooooooooooooooooo++++++++++++++++oooooooooooooooo++++++++oooooooooooooooooooooooooooooooo",
"oooooooo++++++++OOOOOOOOoooooooooooooooooooooooooooooooo++++++++++++++++oooooooooooooooo++++++++oooooooooooooooooooooooooooooooo",
"oooooooo++++++++OOOOOOOOoooooooooooooooooooooooooooooooo++++++++++++++++oooooooooooooooo++++++++oooooooooooooooooooooooooooooooo",
"oooooooo++++++++OOOOOOOOoooooooooooooooooooooooooooooooo++++++++++++++++oooooooooooooooo++++++++oooooooooooooooooooooooooooooooo",
"oooooooo++++++++OOOOOOOOoooooooooooooooooooooooooooooooo++++++++++++++++oooooooooooooooo++++++++oooooooooooooooooooooooooooooooo",
"oooooooo++++++++OOOOOOOOoooooooooooooooooooooooooooooooo++++++++++++++++oooooooooooooooo++++++++oooooooooooooooooooooooooooooooo",
"oooooooo++++++++OOOOOOOOoooooooooooooooooooooooooooooooo++++++++++++++++oooooooooooooooo++++++++oooooooooooooooooooooooooooooooo",
"oooooooo++++++++OOOOOOOOoooooooooooooooooooooooooooooooo++++++++++++++++oooooooooooooooo++++++++oooooooooooooooooooooooooooooooo",
};
